icons/breezeDark/actions/22/pocket-path.svg

<svg viewBox="0 0 22 22" xmlns="http://www.w3.org/2000/svg"><path d="m3 3v16h16v-16zm1 1h14v14h-14z" fill="#c0c0c0"/><path d="m6 6v10h10v-7h-.5-6.5v4h4v-1h-3v-2h5v5h-8v-8h6.054688a2.5 2.5 0 0 1 -.054688-.5 2.5 2.5 0 0 1 .050781-.5z" fill="#da4453"/><path d="m15.5 4a2.5 2.5 0 0 0 -2.5 2.5 2.5 2.5 0 0 0 2.5 2.5 2.5 2.5 0 0 0 2.5-2.5 2.5 2.5 0 0 0 -2.5-2.5zm0 1a1.5 1.5 0 0 1 1.5 1.5 1.5 1.5 0 0 1 -1.5 1.5 1.5 1.5 0 0 1 -1.5-1.5 1.5 1.5 0 0 1 1.5-1.5z" fill="#3daee9"/></svg>

<?xml version="1.0" encoding="UTF-8" standalone="no"?>
<svg
   xmlns:dc="http://purl.org/dc/elements/1.1/"
   xmlns:cc="http://creativecommons.org/ns#"
   xmlns:rdf="http://www.w3.org/1999/02/22-rdf-syntax-ns#"
   xmlns:svg="http://www.w3.org/2000/svg"
   xmlns="http://www.w3.org/2000/svg"
   xmlns:sodipodi="http://sodipodi.sourceforge.net/DTD/sodipodi-0.dtd"
   xmlns:inkscape="http://www.inkscape.org/namespaces/inkscape"
   viewBox="0 0 22 22"
   version="1.1"
   id="svg10"
   sodipodi:docname="stroke-to-path.svg"
   inkscape:version="0.92.4 (5da689c313, 2019-01-14)">
  <metadata
     id="metadata14">
    <rdf:RDF>
      <cc:Work
         rdf:about="">
        <dc:format>image/svg+xml</dc:format>
        <dc:type
           rdf:resource="http://purl.org/dc/dcmitype/StillImage" />
        <dc:title></dc:title>
      </cc:Work>
    </rdf:RDF>
  </metadata>
  <sodipodi:namedview
     pagecolor="#ffffff"
     bordercolor="#666666"
     borderopacity="1"
     objecttolerance="10"
     gridtolerance="10"
     guidetolerance="10"
     inkscape:pageopacity="0"
     inkscape:pageshadow="2"
     inkscape:window-width="1426"
     inkscape:window-height="1187"
     id="namedview12"
     showgrid="true"
     inkscape:zoom="30.341309"
     inkscape:cx="14.757585"
     inkscape:cy="9.8568605"
     inkscape:window-x="1994"
     inkscape:window-y="462"
     inkscape:window-maximized="0"
     inkscape:current-layer="svg10">
    <inkscape:grid
       type="xygrid"
       id="grid821"
       empspacing="2"
       spacingx="0.5"
       spacingy="0.5" />
  </sodipodi:namedview>
  <defs
     id="defs3051">
    <style
       type="text/css"
       id="current-color-scheme">
      .ColorScheme-Text {
        color:#c0c0c0;
      }
      .ColorScheme-Highlight {
        color:#3daee9;
      }
      </style>
  </defs>
  <path
     style="fill:#c0c0c0;fill-opacity:1;stroke:none;stroke-opacity:1"
     d="M 3 3 L 3 19 L 19 19 L 19 3 L 3 3 z M 4 4 L 18 4 L 18 18 L 4 18 L 4 4 z "
     id="rect823" />
  <path
     style="color:#000000;font-style:normal;font-variant:normal;font-weight:normal;font-stretch:normal;font-size:medium;line-height:normal;font-family:sans-serif;font-variant-ligatures:normal;font-variant-position:normal;font-variant-caps:normal;font-variant-numeric:normal;font-variant-alternates:normal;font-feature-settings:normal;text-indent:0;text-align:start;text-decoration:none;text-decoration-line:none;text-decoration-style:solid;text-decoration-color:#000000;letter-spacing:normal;word-spacing:normal;text-transform:none;writing-mode:lr-tb;direction:ltr;text-orientation:mixed;dominant-baseline:auto;baseline-shift:baseline;text-anchor:start;white-space:normal;shape-padding:0;clip-rule:nonzero;display:inline;overflow:visible;visibility:visible;opacity:1;isolation:auto;mix-blend-mode:normal;color-interpolation:sRGB;color-interpolation-filters:linearRGB;solid-color:#000000;solid-opacity:1;vector-effect:none;fill:#da4453;fill-opacity:1;fill-rule:nonzero;stroke:none;stroke-width:1px;stroke-linecap:butt;stroke-linejoin:miter;stroke-miterlimit:4;stroke-dasharray:none;stroke-dashoffset:0;stroke-opacity:1;color-rendering:auto;image-rendering:auto;shape-rendering:auto;text-rendering:auto;enable-background:accumulate"
     d="M 6 6 L 6 16 L 16 16 L 16 9 L 15.5 9 L 9 9 L 9 13 L 13 13 L 13 12 L 10 12 L 10 10 L 15 10 L 15 15 L 7 15 L 7 7 L 13.054688 7 A 2.5 2.5 0 0 1 13 6.5 A 2.5 2.5 0 0 1 13.050781 6 L 6 6 z "
     id="path828" />
  <path
     style="fill:#3daee9;fill-opacity:1;stroke:none;stroke-opacity:1"
     d="M 15.5 4 A 2.5 2.5 0 0 0 13 6.5 A 2.5 2.5 0 0 0 15.5 9 A 2.5 2.5 0 0 0 18 6.5 A 2.5 2.5 0 0 0 15.5 4 z M 15.5 5 A 1.5 1.5 0 0 1 17 6.5 A 1.5 1.5 0 0 1 15.5 8 A 1.5 1.5 0 0 1 14 6.5 A 1.5 1.5 0 0 1 15.5 5 z "
     id="path834" />
</svg>
